X:1
T:167 - Vem Inflama
T:Letra: Guilherme Luiz dos Santos Ferreira (1850-1934)
T:Música: Ira David Sankey (1840-1908)
M:9/8
L:1/8
Q:1/4=120
K:F
V:1
(CF)G | "F"A3 A3 (A^A)B | c3c3 (cd)A | "C7"c3- c2B (BA)G | "F"A3 z3 (CF)G | A3 A3 (A^A)B | c3c3 (cd)A | "C7"c3- c2B (BA)G | "F"F3 z3 || (AB)c | "Bb"d3 d3 (fe)d | "F"d3 c3 (cB)A | "C"G3- G2A ("C7"Bc)d | ("F"c3 A3) (AB)c | "Bb"d3 d3 (fe)d | "F"d3 c3 (cB)A | "C"G3- G2A ("C7"BA)G | "F"F3 z3 |]
w: 1.~Meu_ pe-ca-do res_ga-ta-do Foi_ na cruz_ por teu_ a-mor, E_ da mor-te, tris_te sor-te, Me_ li-vras_te, Tu,_ Se-nhor. Vem,_ in-fla-maa vi_va cha-ma    Em_ meu pei_to, Bem_ sem fim!_ Eu_ Tea-do-ro, sem_preim-plo-ro: Ó_ Je-sus,_ ha-bi_taem mim!  
w: 2.~Sehe_si-tan-te, va_ci-lan-te, Ou_çoa voz_ do ten_ta-dor, Tu_ me gui-as, meau_xi-li-as E_ me tor_nas ven_ce-dor.  
w: 3.~Re_di-mi-da, só_ tem vi-da A_ mi-nhaal_maem teu_ a-mor; Com_ a-pre-ço re_co-nhe-ço Quan_to de_voa Ti,_ Se-nhor!            
W: 
W: 
W: 1. Meu pecado resgatado
W: Foi na cruz por teu amor,
W: E da morte, triste sorte,
W: Me livraste, Tu, Senhor.
W: 
W:    (Estribilho)
W:    Vem, inflama a viva chama
W:    Em meu peito, Bem sem fim!    
W:    Eu Te adoro, sempre imploro:
W:    Ó Jesus, habita em mim!
W:
W: 
W:  
W: 2. Se hesitante, vacilante,
W: Ouço a voz do tentador,
W: Tu me guias, me auxilias
W: E me tornas vencedor.
W: 
W: 3. Redimida, só tem vida
W: A minha alma em teu amor;
W: Com apreço reconheço
W: Quanto devo a Ti, Senhor!
W:         
W: 				         
W:           





%wordsfont Times-Roman 13.0
